img/social/wtsapp.svg

<svg width="38" height="38" viewBox="0 0 38 38" fill="none" xmlns="http://www.w3.org/2000/svg">
<path d="M19 38C29.4934 38 38 29.4934 38 19C38 8.50659 29.4934 0 19 0C8.50659 0 0 8.50659 0 19C0 29.4934 8.50659 38 19 38Z" fill="#5EC14E"/>
<path d="M24.6993 13.247C23.9662 12.5317 23.1197 11.9773 22.2018 11.5959C21.26 11.2084 20.2347 11.0057 19.1737 11.0057C16.998 11.0057 15.025 11.8879 13.5944 13.3185C12.1638 14.7491 11.2816 16.7221 11.2816 18.8978C11.2816 19.5952 11.371 20.2867 11.5439 20.9483C11.7227 21.61 11.985 22.2478 12.3307 22.8439L12.444 23.0346L11.7883 26.2773L15.2217 25.7468L15.3946 25.8421C15.9728 26.1521 16.5867 26.3965 17.2305 26.5574C17.8623 26.7184 18.512 26.8018 19.1737 26.8018C21.3494 26.8018 23.3284 25.9137 24.753 24.489C26.1836 23.0584 27.0717 21.0854 27.0717 18.9038C27.0717 17.8428 26.8691 16.8175 26.4757 15.8757C26.0882 14.9339 25.51 14.0636 24.7649 13.3126L24.6993 13.247ZM17.6358 16.8115C17.5822 16.7042 17.1291 15.6075 16.9444 15.1604C16.7655 14.7193 16.5807 14.7849 16.4437 14.773C16.3125 14.767 16.1635 14.767 16.0145 14.767C15.8655 14.767 15.6211 14.8266 15.4184 15.0471C15.2157 15.2677 14.6375 15.8101 14.6375 16.9069C14.6375 18.0097 15.4363 19.0707 15.5495 19.2197C15.6568 19.3687 17.1232 21.6219 19.3644 22.5875C19.8949 22.82 20.3062 22.9571 20.6341 23.0584C21.1706 23.2253 21.6534 23.2075 22.0468 23.1479C22.464 23.0823 23.3582 22.6054 23.5489 22.0868C23.7337 21.5623 23.7337 21.1152 23.68 21.0258C23.6204 20.9304 23.4774 20.8768 23.2509 20.7576C23.0244 20.6503 21.9276 20.1138 21.7249 20.0363C21.5222 19.9648 21.3673 19.929 21.2182 20.1436C21.0752 20.3701 20.646 20.8768 20.5208 21.0258C20.3897 21.1748 20.2526 21.1927 20.032 21.0795C19.8055 20.9662 19.0843 20.7337 18.2319 19.9708C17.5702 19.3747 17.1232 18.6475 16.992 18.4269C16.8669 18.2004 16.992 18.0931 17.0874 17.9739C17.3318 17.6639 17.5822 17.354 17.6477 17.205C17.7252 17.0559 17.6895 16.9248 17.6358 16.8115ZM22.6548 10.4991C23.7456 10.9521 24.747 11.6197 25.6054 12.4721L25.7842 12.6569C26.5531 13.4735 27.1611 14.4093 27.5784 15.4227C28.0255 16.5195 28.2639 17.6997 28.2639 18.9038C28.2639 21.4133 27.2446 23.6843 25.5994 25.3295C23.9542 26.9747 21.6832 27.994 19.1737 27.994C18.4167 27.994 17.6656 27.8986 16.9384 27.7138C16.2708 27.5469 15.627 27.2966 15.0071 26.9806L10.2862 27.7079L11.1862 23.2373C10.8465 22.6114 10.5782 21.9438 10.3935 21.2583C10.1908 20.4893 10.0835 19.6966 10.0835 18.8978C10.0835 16.3943 11.1088 14.1232 12.7539 12.478C14.3931 10.8329 16.6702 9.80762 19.1737 9.80762C20.3837 9.80762 21.564 10.046 22.6548 10.4991Z" fill="white"/>
</svg>

<svg width="38" height="38" fill="none" xmlns="http://www.w3.org/2000/svg"><path d="M19 38c10.493 0 19-8.507 19-19S29.493 0 19 0 0 8.507 0 19s8.507 19 19 19Z" fill="#5EC14E"/><path d="M24.7 13.247a7.924 7.924 0 0 0-2.498-1.651 7.944 7.944 0 0 0-3.028-.59 7.866 7.866 0 0 0-5.58 2.313 7.866 7.866 0 0 0-2.312 5.579c0 .697.089 1.389.262 2.05.179.662.441 1.3.787 1.896l.113.19-.656 3.243 3.434-.53.173.095a7.982 7.982 0 0 0 3.779.96 7.88 7.88 0 0 0 5.579-2.313 7.875 7.875 0 0 0 2.319-5.585 7.838 7.838 0 0 0-.596-3.028 7.923 7.923 0 0 0-1.711-2.563l-.066-.066Zm-7.064 3.564c-.054-.107-.507-1.204-.692-1.65-.178-.442-.363-.376-.5-.388-.131-.006-.28-.006-.43-.006a.832.832 0 0 0-.596.28c-.202.22-.78.763-.78 1.86 0 1.103.798 2.164.912 2.313.107.149 1.573 2.402 3.814 3.367.53.233.942.37 1.27.471.537.167 1.02.15 1.413.09.417-.066 1.311-.543 1.502-1.061.185-.525.185-.972.131-1.061-.06-.096-.203-.15-.43-.268-.226-.108-1.322-.644-1.525-.722-.203-.071-.358-.107-.507.108-.143.226-.572.733-.697.882-.131.149-.268.167-.489.053-.227-.113-.948-.345-1.8-1.108-.662-.596-1.109-1.323-1.24-1.544-.125-.227 0-.334.095-.453.245-.31.495-.62.56-.769.078-.15.043-.28-.011-.393Zm5.019-6.312a9.192 9.192 0 0 1 2.95 1.973l.18.185a9.086 9.086 0 0 1 1.793 2.766 9.22 9.22 0 0 1 .686 3.48 9.06 9.06 0 0 1-2.665 6.427 9.06 9.06 0 0 1-8.66 2.384 9.129 9.129 0 0 1-1.932-.733l-4.72.727.9-4.47a9.155 9.155 0 0 1-.793-1.98 9.062 9.062 0 0 1 2.36-8.78 9.066 9.066 0 0 1 9.9-1.979Z" fill="#fff"/></svg>
